!!!COM: Palestrina, Giovanni Perluigi da
!!!OPR: Missa Sine nomine (Mantuan)
!!!OTL: Agnus
**kern	**kern	**kern	**kern
*Ibass	*Itenor	*Icalto	*Icant
!Bassus	!Tenor	!Altus	!Cantus
*clefF4	*clefGv2	*clefG2	*clefG2
*k[]	*k[]	*k[]	*k[]
*G:mix	*G:mix	*G:mix	*G:mix
*M4/2	*M4/2	*M4/2	*M4/2
=1	=1	=1	=1
0r	0G	0r	0g
=2	=2	=2	=2
0r	1c	0r	1e
.	1d	.	1f
=3	=3	=3	=3
0C	2.e	0r	2.g
.	4d	.	4f
.	4e	.	4e
.	4f	.	4d
.	2g	.	2e
=4	=4	=4	=4
1F	2.f	0r	2d
.	.	.	1c
.	4e	.	.
1G	1d	.	.
.	.	.	2B
=5	=5	=5	=5
2.A	2c	0r	2.c
.	2.e	.	.
4G	.	.	4B
4A	.	.	1A
4B	4d	.	.
[2c	4e	.	.
.	4c	.	.
=6	=6	=6	=6
2c]	1d	0g	1G
4B	.	.	.
4A	.	.	.
1B	1G	.	2r
.	.	.	[2g
=7	=7	=7	=7
1c	1r	1e	4g]
.	.	.	4f
.	.	.	2e
2F	2r	1f	2d
2A	[2c	.	2c
=8	=8	=8	=8
1G	2c]	2.g	1d
.	2B	.	.
.	.	4f	.
1C	1c	4e	1g
.	.	4d	.
.	.	2e	.
=9	=9	=9	=9
0r	2B	2d	1r
.	2e	1c	.
.	1d	.	[1G
.	.	2B	.
=10	=10	=10	=10
0C	0e	1c	1G]
.	.	1r	1c
=11	=11	=11	=11
1F	0r	0r	1d
1G	.	.	2.e
.	.	.	4d
=12	=12	=12	=12
2.A	0r	0r	4c
.	.	.	4B
.	.	.	2.c
4G	.	.	.
4A	.	.	.
4B	.	.	4d
[2c	.	.	4e
.	.	.	4c
=13	=13	=13	=13
2c]	0g	0G	0d
4B	.	.	.
4A	.	.	.
1B	.	.	.
=14	=14	=14	=14
1c	1e	1c	0r
1r	1f	1d	.
=15	=15	=15	=15
0C	2.g	2.e	1c
.	4f	4d	.
.	4e	4e	1g
.	4d	4f	.
.	2e	2g	.
=16	=16	=16	=16
1F	2d	2.f	1a
.	1c	.	.
.	.	4e	.
1G	.	1d	2.g
.	2B	.	.
.	.	.	4f
=17	=17	=17	=17
1C	2.c	2c	4e
.	.	.	4d
.	.	2g	2e
.	4B	.	.
2r	1A	2g	1c
2c	.	2f#	.
=18	=18	=18	=18
2c	1G	1g	1d
2B	.	.	.
1c	1r	2e	1r
.	.	2c	.
=19	=19	=19	=19
2B	1r	2d	2r
2G	.	1e	2g
1A	2r	.	2g
.	2c	4d	2f#
.	.	4c	.
=20	=20	=20	=20
1G	2c	1d	1g
.	2B	.	.
1r	1c	1g	2e
.	.	.	2c
=21	=21	=21	=21
0r	2B	1g	2d
.	2G	.	2.e
.	1A	1c	.
.	.	.	4d
.	.	.	[2c
=22	=22	=22	=22
1r	1G	1d	2c]
.	.	.	2B
2r	2r	1e	2.c
2A	2c	.	.
.	.	.	4d
=23	=23	=23	=23
2A	2c	0r	[0e
2G#	2B	.	.
1A	1c	.	.
=24	=24	=24	=24
2G	2B	2r	1e]
2E	2G	2e	.
1F	2.A	2e	2r
.	.	2d	2a
.	4B	.	.
=25	=25	=25	=25
1E	2c	1e	2a
.	2B	.	2g#
1F	2A	2c	1a
.	2F	2A	.
=26	=26	=26	=26
2E	2G	2B	2g
2C	2A	1c	2e
1D	1F	.	1f
.	.	2B	.
=27	=27	=27	=27
0C	2G	2c	1e
.	1c	1e	.
.	.	.	1r
.	2c	2e	.
=28	=28	=28	=28
1r	2c	2e	1.g
.	2c	2e	.
2r	1c	1e	.
[2c	.	.	2g
=29	=29	=29	=29
2c]	2G	1d	2g
2B	2d	.	2g
2c	2e	1r	1g
2G	2d	.	.
=30	=30	=30	=30
1A	2.c	2r	0e
.	.	1a	.
.	4A	.	.
1E	1B	.	.
.	.	2g#	.
=31	=31	=31	=31
2r	1A	2a	2r
1A	.	2e	1c
.	1r	2f	.
2A	.	[2e	2c
=32	=32	=32	=32
2A	2.e	4e]	2c
.	.	4d	.
2A	.	4c	2c
.	4e	4B	.
1A	2e	2A	1c
.	2e	[2a	.
=33	=33	=33	=33
1E	1e	2a]	1B
.	.	2g#	.
2r	[1c	2a	2A
[2F	.	[2f	[2a
=34	=34	=34	=34
2F]	0c]	2f]	2a]
2F	.	2f	2a
2F	.	2f	2a
2F	.	2f	2a
=35	=35	=35	=35
1F	1r	1f	1a
[1C	[1c	2.e	1g
.	.	4f	.
=36	=36	=36	=36
0C]	2c]	4g	2.e
.	.	4a	.
.	2c	2.g	.
.	.	.	4f
.	2c	.	4g
.	.	4f	4a
.	2c	[2e	[2g
=37	=37	=37	=37
0r	1c	4e]	4g]
.	.	4d	4f
.	.	1c	2e
.	1G	.	1d
.	.	2B	.
=38	=38	=38	=38
1r	2r	2c	2.e
.	1c	1e	.
.	.	.	4f
[1G	.	.	1g
.	2B	2d	.
=39	=39	=39	=39
2G]	1B	2.d	1r
2G	.	.	.
.	.	4c	.
2G	2G	2.B	2.d
2G	[2B	.	.
.	.	4A	4d
=40	=40	=40	=40
1G	2B]	2G	2d
.	4A	1g	2d
.	4G	.	.
1D	1A	.	1d
.	.	2f#	.
=41	=41	=41	=41
2r	2G	[0g	2B
1C	1c	.	1e
2C	2c	.	2e
=42	=42	=42	=42
2C	2c	0g]	2e
2C	2c	.	2e
1C	1c	.	1e
=43	=43	=43	=43
[0G	[0B	[0g	[0d
=44	=44	=44	=44
0G]	0B]	0g]	0d]
==	==	==	==
*-	*-	*-	*-
!!!CDT: 1525/^1526/-1594/2/2
!!!OCY: Italia
!!!AGN: Mass (Free)
!!!AST: renaissance, vocal
!!!ASW: Motet (Maffoni)
!!!PWK: Masses, Book Mantuan II
!!!RNB: Cadence finals: C
!!!YOR: Le Opere Complete, v. 19, p. 168
!!!YOO: Rome, Italy: Fratelli Scalera
!!!END: 1992//
!!!EED: John Miller
!!!YEC: Copyright 2000, John Miller
!!!YEN: United States of America
!!!YEM: Rights to all derivative electronic formats reserved.
!!!YEM: Refer to licensing agreement for further details.
!!!YEM: This file must be accompanied by the licensing agreement.
!!!YEM: A copy of the licensing agreement may be found at http://www.music-cog.ohio-state.edu/HumdrumDatabases/Palestrina/license.txt
!!!EMD: converted to Humdrum by Bret Aarden
